icons/lines/trash.svg

<svg xmlns="http://www.w3.org/2000/svg" width="24" height="24" viewBox="0 0 24 24" fill="none" stroke="currentColor" stroke-width="2" stroke-linecap="round" stroke-linejoin="round" >
  <path d="M21 5.97998C17.67 5.64998 14.32 5.47998 10.98 5.47998C9 5.47998 7.02 5.57998 5.04 5.77998L3 5.97998"/>
  <path d="M8.5 4.97L8.72 3.66C8.88 2.71 9 2 10.69 2H13.31C15 2 15.13 2.75 15.28 3.67L15.5 4.97"/>
  <path d="M18.8499 9.14001L18.1999 19.21C18.0899 20.78 17.9999 22 15.2099 22H8.7899C5.9999 22 5.9099 20.78 5.7999 19.21L5.1499 9.14001"/>
  <path d="M10.3301 16.5H13.6601"/>
  <path d="M9.5 12.5H14.5"/>
  </svg>

<svg xmlns="http://www.w3.org/2000/svg" width="24" height="24" viewBox="0 0 24 24" fill="none" stroke="currentColor" stroke-width="2" stroke-linecap="round" stroke-linejoin="round">
  <path d="M10.33 16.5h3.33" />
  <path d="m18.85 9.14-.65 10.07C18.09 20.78 18 22 15.21 22H8.79C6 22 5.91 20.78 5.8 19.21L5.15 9.14" />
  <path d="M21 5.98a102 102 0 0 0-10.02-.5 59 59 0 0 0-5.94.3L3 5.98" />
  <path d="m8.5 4.97.22-1.31C8.88 2.71 9 2 10.69 2h2.62c1.69 0 1.82.75 1.97 1.67l.22 1.3" />
  <path d="M9.5 12.5h5" />
</svg>
